X:2
T:Billy Rush's Own 
C:
B:Terry "Cuz" Teahan "Sliabh Luachra on Parade" 1980
Z:Patrick Cavanagh
M:6/8
L:1/8
R:Jig
K:A
N:
F || EFE ECE | FAA A2B | cec BAB | cAA BAF | 
| EFE ECE | FAA A2B | cec BAB | cAA A3 :|| 
B | cee ecA | dcB cAA | BcB BAB | c2A BAF | 
| cee ecA | dcB cAF | EFE ECE | FAA A3 :|| 

